local/share/icons/dracula-icons-main/22/places/folder-download.svg

<?xml version="1.0" encoding="UTF-8"?>
<svg xmlns="http://www.w3.org/2000/svg" xmlns:xlink="http://www.w3.org/1999/xlink" width="22" height="22" viewBox="0 0 22 22">
<path fill-rule="nonzero" fill="rgb(100%, 100%, 100%)" fill-opacity="1" d="M 11 4 C 10.445312 4 10 4.445312 10 5 L 10 10.585938 L 8.171875 8.757812 C 7.78125 8.367188 7.148438 8.367188 6.757812 8.757812 C 6.367188 9.148438 6.367188 9.78125 6.757812 10.171875 L 10.28125 13.699219 C 10.378906 13.792969 10.492188 13.871094 10.617188 13.925781 C 10.863281 14.023438 11.132812 14.027344 11.375 13.929688 C 11.378906 13.925781 11.378906 13.925781 11.382812 13.925781 C 11.503906 13.875 11.617188 13.800781 11.710938 13.707031 L 15.246094 10.171875 C 15.636719 9.78125 15.636719 9.148438 15.246094 8.757812 C 14.851562 8.367188 14.222656 8.367188 13.832031 8.757812 L 12 10.585938 L 12 5 C 12 4.445312 11.554688 4 11 4 Z M 5 14 L 5 16 C 5 17.109375 5.890625 18 7 18 L 15 18 C 16.109375 18 17 17.109375 17 16 L 17 14 L 15 14 L 15 16 L 7 16 L 7 14 Z M 5 14 "/>
</svg>

<svg width="22" height="22" version="1.1" viewBox="0 0 22 22" xmlns="http://www.w3.org/2000/svg">
 <defs>
  <style id="current-color-scheme" type="text/css">.ColorScheme-Text { color:#FFFFFF; } .ColorScheme-Highlight { color:#5294e2; }</style>
 </defs>
 <path class="ColorScheme-Text" d="m11 4c-0.5535 0-1 0.4465-1 1v5.5859l-1.8281-1.8281c-0.39174-0.39174-1.0223-0.39174-1.4141 0s-0.39174 1.0223 0 1.4141l3.5254 3.5254c0.09451 0.09721 0.2083 0.17423 0.33594 0.22656 0.24227 0.10054 0.51501 0.10271 0.75781 0.0039 0.0021-8.68e-4 0.0037-3e-3 0.0059-0.0039 0.12252-0.05051 0.23406-0.12468 0.32617-0.2168l3.5352-3.5352c0.39174-0.39174 0.39174-1.0223 0-1.4141-0.39174-0.39174-1.0223-0.39174-1.4141 0l-1.8301 1.8281v-5.5859c0-0.5535-0.4465-1-1-1zm-6 10v2c0 1.108 0.892 2 2 2h8c1.108 0 2-0.892 2-2v-2h-2v2h-8v-2z" fill="currentColor"/>
</svg>
